X: 111
T: Artık Sevgili Değil...
C: Gülen Ertek
O: Turkey
F: http://compmusic.upf.edu/node/140
N: kurdilihicazkar--sarki--nimsofyan--artik_sevgili--gulen_ertek
N: makam= kurdilihicazkar
N: form= sarki
N: usul= nimsofyan = 2/4
M: 2/4
L: 1/16
K: C _B _e _A 
Q: 1/4=78
%%MIDI tuningsystem comma53
g3/2f/eg f3/2e/df  | e3/2d/cd B3/2A/GF  | \
w:  ARANAĞME  |   | 
G3/2A/Be d3/2c/cB  | 
w:   | 
c3/2d/_1/4ef g2z2  | g3/2f/eg f3/2e/df  | \
w:   |  ARANAĞME  | 
e3/2d/cd B3/2A/GF  | 
w:   | 
G3/2A/Be d3/2c/cB  | BAAG G2z2  | a2g2 a2g2  | \
w:   |   |  Ar tık  SAZ  | 
a2g^f ed2z  | 
w:  sev gi li  de ğil   | 
zde^f edc2  | BB2c d2z2  | e2d2 cB2c  | \
w:  ar ka da şız    |  se nin *  le    |  Ben zer siz  aş kı  | 
defg a2z2  | 
w:  mı zın   | 
dd2e efg2  | a2g4g2  | g3/2f/eg f3/2e/df  | \
w:  ya ban cı sı yız   |  iş te    |  SAZ  | 
e3/2d/cd _1/4efg2  | 
w:   | 
a2g2 a2g2  | a2g^f ed2z  | zde^f edc2  | \
w:  Ar tık  SAZ  |  sev gi li  de ğil   |  ar ka da şız    | 
BB2c d2z2  | 
w:  se nin *  le    | 
e2d2 cB2c  | defg a2z2  | dd2e efg2  | a2g4g2  | \
w:  Ben zer siz  aş kı  |  mı zın   |  ya ban cı sı yız   |  iş te    | 
g3/2f/eg f3/2e/df  | 
w:  SAZ  | 
e3/2d/cd B3/2c/d2  | cd2d d2d2  | z2gg d2z2  | \
w:   |  Be ra *  ber lik   |  di le ği   | 
=aa2f fg_1/4ed  | 
w:  du ay dı  di li miz  | 
d8  | cc3 BAGF  | c2c2 c2z2  | d2B2 AGF2  | \
w:  de    |  Ya lan  de mek  *  ki   |  her şey   |  kop tuy sak   | 
B3A G2z2  | a2g2 a2g2  | 
w:  biz  bi le    |  Ar tık  SAZ  | 
a2g^f ed2z  | zde^f edc2  | BB2c d2z2  | \
w:  sev gi li  de ğil   |  ar ka da şız    |  se nin *  le    | 
e2d2 cB2c  | 
w:  Ben zer siz  aş kı  | 
defg a2z2  | dd2e efg2  | a2g4g2  | g3/2f/eg f3/2e/df  | 
w:  mı zın   |  ya ban cı sı yız   |  iş te    |  SAZ  | 
e3/2d/cd _1/4efg2  | a2g2 a2g2  | a2g^f ed2z  | \
w:   |  Ar tık  SAZ  |  sev gi li  de ğil   | 
zde^f edc2  | 
w:  ar ka da şız    | 
BB2c d2z2  | e2d2 cB2c  | defg a2z2  | dd2e efg2  | 
w:  se nin *  le    |  Ben zer siz  aş kı  |  mı zın   |  ya ban cı sı yız   | 
a2g4g2  | g3/2f/eg f3/2e/df  | e3/2d/cd B3/2c/d2  | \
w:  iş te    |  SAZ  |   | 
cd2d d2d2  | 
w:  Be ra *  ber lik   | 
z2gg d2z2  | =aa2f fg_1/4ed  | d8  | cc3 BAGF  | \
w:  di le ği   |  du ay dı  di li miz  |  de    |  Ya lan  de mek  *  ki   | 
c2c2 c2z2  | 
w:  her şey   | 
d2B2 AGF2  | B3A G2z2  | g3/2f/eg f3/2e/df  | \
w:  kop tuy sak   |  biz  bi le    |  SAZ  | 
e3/2d/cd B3/2A/GF  | 
w:   | 
G3/2A/Bc B3/2c/de  | d3/2_1/4e/fg _1/4a=bb2  | \
w:   |  AĞIRLAŞARAK  | 
_1/4a=b2b b2ba  | 
w:  Bu  aş ka  dök tü ğü  | 
=b8  | =b2b2 _1/4aab2  | g2_1/4a2 =b2z2  | \
w:  müz   |  yağ mur  gi bi   |  yaş lar  var    | 
=bb2b b3b  | =bbb_1/4a g3g  | 
w:  Ve ril *  miş  gü  |  zel  *  söz *  ler  ve   | 
_1/4a2g^f d'c'2=b  | =b_1/4aag g2z2  | \
w:  hat ta  *  ye min  |  ler  *  *  *  var    | 
f3/2_1/4a/g=b a3/2b/bd'  | =b3/2_1/4a/ga b2z2  | 
w:  SAZ  |   | 
_1/4a=b2b b2ba  | =b8  | =b2b2 _1/4aab2  | \
w:  Bu  aş ka  dök tü ğü  |  müz   |  yağ mur  gi bi   | 
g2_1/4a2 =b2z2  | =bb2b b3b  | 
w:  yaş lar  var    |  Ve ril *  miş  gü  | 
=bbb_1/4a g3g  | _1/4a2g^f d'c'2=b  | \
w:  zel  *  söz *  ler  ve   |  hat ta  *  ye min  | 
=b_1/4aag g2z2  | g3/2f/eg f3/2e/df  | 
w:  ler  *  *  *  var    |  SAZ  | 
e3/2d/cd _1/4efg2  | f3g gg3  | z2fg a2z2  | \
w:   |  Bit me ye cek   |  sa nı lan   | 
gf3 e2d2  | cB2c d2z2  | 
w:  gü zel  yıl lar  |  dan  *  ka lan    | 
a2g2 fedc  | d2c2 B2z2  | d2BA cBAG  | G4 G2z2  | \
w:  Mut lu  fo toğ  |  raf lar la   |  bir  yı ğın_ a nı lar   |  var    | 
g3/2f/eg f3/2e/df  | 
w:  SAZ  | 
e3/2d/cd _1/4efg2  | f3g gg3  | z2fg a2z2  | \
w:   |  Bit me ye cek   |  sa nı lan   | 
gf3 e2d2  | cB2c d2z2  | 
w:  gü zel  yıl lar  |  dan  *  ka lan    | 
a2g2 fedc  | d2c2 B2z2  | d2BA cBAG  | G4 G2z2  | z6  | 
w:  Mut lu  fo toğ  |  raf lar la   |  bir  yı ğın_ a nı lar   |  var    |  | 
g2g2gg  | e2e2ee  | f2b2ag  | g2g2gg  | fga c'ba  | 
w:  SAZ  |   |   |   |   | 
gfe fed  | efe fef  | g2g ggg  | g2g2g2  | \
w:   |   |   |  Se vinç ler   | 
g2g2g2  | 
w:  hep   | 
g2f edc  | g2g2g2  | d2e2f2  | fgf eed  | d2d2d2  | \
w:  yok  ol  |  du   |  so nun da   |  gel *  dik  *  gö  |  ze   *  AĞIRLAŞARAK  | 
def ga2  | 
w:   | 
a2a2z2  | g2g2f2  | e2d2c2  | B2B2z2  | g2f2e2  | \
w:  Ar tık   |  biz  *  ha  |  yat  *  de  |  ğil   |  ha tı ra  | 
d2c2B2  | c2B AAG  | 
w:  yız   |  se nin  | 
G2G2z2  | g2g2gg  | e2e2ee  | f2b2ag  | g2g2gg  | \
w:  le    |  SAZ  |   |   |   | 
fga c'ba  | 
w:   | 
gfe fed  | efe fef  | g2g ggg  | g2g2g2  | \
w:   |   |   |  Se vinç ler   | 
g2g2g2  | 
w:  hep   | 
g2f edc  | g2g2g2  | d2e2f2  | fgf eed  | d2d2d2  | \
w:  yok  ol  |  du   |  so nun da   |  gel *  dik  *  gö  |  ze   *  AĞIRLAŞARAK  | 
def ga2  | 
w:   | 
a2a2z2  | g2g2f2  | e2d2c2  | B2B2z2  | g2f2e2  | \
w:  Ar tık   |  biz  *  ha  |  yat  *  de  |  ğil   |  ha tı ra  | 
d2c2B2  | c2B AAG  | 
w:  yız   |  se nin  | 
G2G2z2  | z8  | g3/2f/eg f3/2e/dg  | e3/2d/cd Bcd2  | \
w:  le    |  |  SAZ  |   | 
z2cd d3d  | 
w:  A ma  dost lu  | 
gg3 d2z2  | =aaf2 fg2e  | d8  | c2cc BAGF  | \
w:  ğu muz  var   |  o na  gel me sin  za  |  rar    |  İs te rim  sü rüp   | 
c2c2 c2z2  | 
w:  git sin   | 
d2c2 BAGF  | B3A G2z2  | g3/2f/eg f3/2e/dg  | \
w:  dün ya  dön *  *  dü  |  ğü  ka dar    |  SAZ  | 
e3/2d/cd Bcd2  | 
w:   | 
z2cd d3d  | gg3 d2z2  | =aaf2 fg2e  | d8  | \
w:  A ma  dost lu  |  ğu muz  var   |  o na  gel me sin  za  |  rar    | 
c2cc BAGF  | 
w:  İs te rim  sü rüp   | 
c2c2 c2z2  | d2c2 BAGF  | B3A G2z2  | |


